assets/images/dollar.svg

<svg width="48" height="48" viewBox="0 0 48 48" fill="none" xmlns="http://www.w3.org/2000/svg">
<circle cx="24" cy="24" r="23.5" fill="white" stroke="#022F45"/>
<g clip-path="url(#clip0_51_9108)">
<path d="M24.5 39C32.5081 39 39 32.5081 39 24.5C39 16.4919 32.5081 10 24.5 10C16.4919 10 10 16.4919 10 24.5C10 32.5081 16.4919 39 24.5 39Z" fill="#FEB703"/>
<path d="M24.5 10C16.5046 10 10 16.5046 10 24.5C10 32.4954 16.5046 39 24.5 39C32.4954 39 39 32.4954 39 24.5C39 16.5046 32.4954 10 24.5 10ZM24.5 37.7919C17.1713 37.7919 11.2081 31.8287 11.2081 24.5C11.2081 17.1713 17.1713 11.2081 24.5 11.2081C31.8287 11.2081 37.7919 17.1741 37.7919 24.5C37.7919 31.8259 31.8287 37.7913 24.5 37.7913V37.7919ZM29.3331 27.37C29.332 28.2108 28.9974 29.0169 28.4028 29.6115C27.8082 30.2061 27.0021 30.5407 26.1613 30.5419H25.1055V32.3544C25.1055 32.5146 25.0418 32.6684 24.9285 32.7817C24.8151 32.895 24.6614 32.9587 24.5011 32.9587C24.3408 32.9587 24.1871 32.895 24.0738 32.7817C23.9604 32.6684 23.8968 32.5146 23.8968 32.3544V30.5413H22.7781C22.1948 30.5407 21.6219 30.3869 21.1167 30.0953C20.6115 29.8036 20.1918 29.3843 19.8997 28.8795C19.8555 28.8107 19.8258 28.7336 19.8123 28.653C19.7988 28.5724 19.8018 28.4899 19.8211 28.4105C19.8404 28.331 19.8756 28.2563 19.9246 28.1909C19.9736 28.1255 20.0354 28.0707 20.1061 28.0298C20.1769 27.9889 20.2553 27.9629 20.3364 27.9531C20.4176 27.9434 20.4998 27.9502 20.5783 27.9732C20.6567 27.9962 20.7297 28.0348 20.7928 28.0868C20.8558 28.1388 20.9077 28.2031 20.9452 28.2757C21.1316 28.5968 21.399 28.8633 21.7206 29.0488C22.0422 29.2343 22.4069 29.3321 22.7781 29.3326H26.1613C26.6552 29.3326 27.131 29.1466 27.4939 28.8116C27.8568 28.4766 28.0801 28.0171 28.1195 27.5248C28.1589 27.0325 28.0113 26.5434 27.7063 26.155C27.4012 25.7666 26.961 25.5073 26.4734 25.4289L22.3386 24.7639C21.5474 24.6415 20.8317 24.2243 20.3353 23.5961C19.8389 22.968 19.5983 22.1753 19.662 21.3772C19.7256 20.5791 20.0888 19.8346 20.6785 19.2931C21.2682 18.7516 22.0409 18.4531 22.8416 18.4576H23.8974V16.6451C23.8974 16.4848 23.961 16.3311 24.0744 16.2177C24.1877 16.1044 24.3414 16.0407 24.5017 16.0407C24.662 16.0407 24.8157 16.1044 24.9291 16.2177C25.0424 16.3311 25.1061 16.4848 25.1061 16.6451V18.4576H26.2247C26.8078 18.4587 27.3805 18.6128 27.8854 18.9044C28.3904 19.196 28.8101 19.615 29.1026 20.1194C29.1783 20.2579 29.1967 20.4206 29.154 20.5725C29.1113 20.7245 29.0109 20.8537 28.8742 20.9326C28.7374 21.0114 28.5753 21.0337 28.4224 20.9945C28.2695 20.9554 28.1379 20.858 28.0559 20.7232C27.8695 20.4021 27.6022 20.1355 27.2805 19.9501C26.9589 19.7646 26.5943 19.6668 26.223 19.6663H22.8399C22.346 19.6662 21.8702 19.8523 21.5073 20.1873C21.1444 20.5223 20.921 20.9817 20.8816 21.474C20.8423 21.9664 20.9898 22.4555 21.2949 22.8439C21.5999 23.2323 22.0401 23.4915 22.5278 23.57L26.6625 24.2349C27.4087 24.3522 28.0882 24.7328 28.5781 25.3078C29.068 25.8827 29.3358 26.6141 29.3331 27.3694V27.37Z" fill="#022F45"/>
</g>
<defs>
<clipPath id="clip0_51_9108">
<rect width="29" height="29" fill="white" transform="translate(10 10)"/>
</clipPath>
</defs>
</svg>

<svg width="48" height="48" fill="none" xmlns="http://www.w3.org/2000/svg"><circle cx="24" cy="24" r="23.5" fill="#fff" stroke="#022F45"/><g clip-path="url(#a)"><path d="M24.5 39C32.508 39 39 32.508 39 24.5S32.508 10 24.5 10 10 16.492 10 24.5 16.492 39 24.5 39Z" fill="#FEB703"/><path d="M24.5 10C16.505 10 10 16.505 10 24.5S16.505 39 24.5 39 39 32.495 39 24.5 32.495 10 24.5 10Zm0 27.792c-7.329 0-13.292-5.963-13.292-13.292S17.171 11.208 24.5 11.208 37.792 17.174 37.792 24.5 31.829 37.791 24.5 37.791Zm4.833-10.422a3.176 3.176 0 0 1-3.172 3.172h-1.056v1.812a.604.604 0 0 1-1.208 0v-1.813h-1.119A3.33 3.33 0 0 1 19.9 28.88a.604.604 0 1 1 1.045-.603 2.123 2.123 0 0 0 1.833 1.057h3.383a1.965 1.965 0 0 0 .312-3.904l-4.134-.665a3.171 3.171 0 0 1 .503-6.306h1.055v-1.813a.604.604 0 1 1 1.21 0v1.813h1.118a3.333 3.333 0 0 1 2.878 1.661.604.604 0 0 1-1.047.604 2.121 2.121 0 0 0-1.833-1.057H22.84a1.964 1.964 0 0 0-.312 3.904l4.135.665a3.162 3.162 0 0 1 2.67 3.134v.001Z" fill="#022F45"/></g><defs><clipPath id="a"><path fill="#fff" transform="translate(10 10)" d="M0 0h29v29H0z"/></clipPath></defs></svg>
